X:1
T:Enigma Variations
T:Enigma Variations
T:IX. Nimrod
T:Elgar, Edward
C:Elgar, Edward
%%score { ( 1 2 ) | ( 3 4 ) }
L:1/8
Q:1/4=52
M:3/4
K:Eb
V:1 treble nm="Piano" snm="Pno."
V:2 treble 
V:3 bass 
V:4 bass 
V:1
"^Adagio" ((GE) [A,EA]2 [A,EF]2 | [B,EB]2 [B,EF]2) (F!pp!A |!<(! GB!p! [Ge]2 F2-!<)! | %3
 [Fd]2 E2)"_cresc." (FA) | (GB [Bg]2 =A2- | [Af]2 G2)!<(! (=Ac)!<)! |!>(! (ec!>)! =A3!p! B | %7
 BG F3 _A) |!<(! (GE [A,EA]2 [A,EF]2!<)! | [B,EB]2 [F,B,EF]2) (FA |!<(! GB!<)! [Ge]2 F2 | %11
 [Fd]2 E2) (FA |"_cresc." GB [Bg]2 _A2- | [Af]2 G2) (Ac |!mf! [DAd]f [cfc']2 [Dcd]2 | %15
 [Beb]2 [CEBc]2) ([DAd]f) | ([Aca][Cc] [B,FAB]2) ([CGc]e) | %17
 ([GBg][B,B] [A,EGA]2)"_dim." ([B,FB]d) |!p! ([FAf][A,A] G3 F) |!pp!!<(! (B z z2 Bc-!<)! | %20
!>(! c4 d2)!>)! |!pp!!<(! (B4- B!p!c!<)! |!p!!>(! f4 B2)!>)! |"_cresc." (B,2- [B,B]2 [CEc]2) | %24
 ([EAe]3 [DFAd] [CFAc]2) | ([B,FAB]2 [CFAc]3 [DFAd]) | ([cfc']3 [Bfb] [Ada]2) | %27
 ([GBeg][GBe] [Aea]2 [FAef]2 | [Beb]2 [FBef]2) ([FAdf][Ada] | [Geg][Bb] [ege']2 [Fef]2 | %30
 [dfd']2 [Ede]2) (FA | GB [Bg]2 _A2- | [Af]2 G2) (Ac | [DAd]f [cfc']2 [Dcd]2 | %34
 [Beb]2 [CEBc]2) ([DAd]f) | (!>![Aca][Cc] [B,FAB]2)"_cresc." ([DAd]f) | %36
 (!>![Aca][Cc] [B,FAB]2) !tenuto![DAd]!tenuto![Ff] | %37
!ff![Q:1/4=50] (3!>![A_ca]!>![Ee]3/2[_Cc]/[Q:1/4=48] [B,B]3 [B,B] |!<(! B6!<)! | %39
 [GBeg]!>(![GBe] ([Aea]2 [FAef]2)!>)! |!pp![Q:1/4=46] ([Beb]2 e2 d2)[Q:1/4=40] | %41
"_dim." !fermata![GBeg]6- | [GBeg]2 z2 !fermata!z2 |] %43
V:2
 [G,B,]2 x4 | x2 x2 D2 | [G,E]2 E4 | D4 D2 | E2 G4 | F4 E2 | E6 | E4 D2 | [G,B,]2 x4 | x4 D2 | %10
 [G,E]2 E4 | D4 D2 | E2 G4 | F4 E2 | x6 | x6 | x6 | x6 | x2 ([B,D]2 C2) | x2 G2 [FA][EG] | x6 | %21
 x2 ([B,G]2 [A,F][G,E]) | x6 | x6 | x6 | x6 | x6 | x6 | x6 | x6 | x4 D2 | E2 G4 | F4 E2 | x6 | x6 | %35
 x6 | x6 | x2 F2 E2 | [B,D]2 !>![=CEA]2 [A,DF]2 | x6 | x2 [FBf]3 [Aa] | x6 | x6 |] %43
V:3
!pp!!ped! [E,,B,,E,]2!ped! z2 [C,E,]2!ped-up! |!ped! [G,,,G,,]2!ped! [B,,,B,,]2 B,,2!ped-up! | %2
!ped! [E,,B,,E,]2!ped-up!!ped! !tenuto!G,2 !tenuto!=A,2!ped-up! | %3
"_simile"!ped! !tenuto!F,2 !tenuto!G,2!ped! _A,F,!ped-up! | %4
!mp!!ped! G,2!mf!!ped-up!!ped! !tenuto!B,2 !tenuto!C2!ped-up! | %5
!ped! !tenuto!=A,2 !tenuto!=B,2!ped-up!!ped! C_B,!ped-up! | =A,G, F,3!ped-up!!ped! G, | %7
 G,[I:staff -1]B, =A,2!ped-up!!ped![I:staff +1] _A,F, | [E,,B,,E,]2!ped! z2 [C,E,]2!ped-up! | %9
 [G,,,G,,]2 [B,,,B,,]2!ped![I:staff -1] A,[I:staff +1]F,!ped-up! | %10
!ped! [E,,B,,E,]2!ped-up!!ped!!ped-up!!ped! !^!G,2 !^!=A,2!ped-up! | %11
!ped! !^!F,2 !^!G,2!ped-up!!ped!!ped-up!!ped! _A,F,!ped-up! | %12
!ped! G,2!ped-up!!ped! !^!B,2 !^!C2!ped-up! |!ped! !^!A,2 !^!B,2!ped-up!!ped! [C,A,C]2!ped-up! | %14
!ped! [B,,F,B,]2!ped-up!!ped! [A,,F,A,]4!ped-up! | [G,,E,G,]2 [_G,,E,_G,]2 [F,,B,,F,]2 | %16
 [E,,C,E,]2 [D,,D,]2 [E,,C,E,]2 | [D,,D,]2 [C,,C,]2 [D,,B,,D,]2 | [C,,C,]2 B,,4- | %19
!ped! B,,2"^poco marcato" x4!ped-up! |[I:staff -1] ([DF][I:staff +1][F,A,] [B,D]2 CB,) | %21
!ped! B, x x4!ped-up! | ([F,D][C,A,] [E,C]2 [D,B,][C,A,]) |"^molto" G,2 z2 A,G, | %24
 ([F,,F,][C,,C,]) [E,,E,]4 | [D,,D,]4 ([C,,C,][B,,,B,,]) | %26
!f! ([A,,,A,,][E,,,E,,]) [D,,,D,,]2 [B,,,,B,,,]2 |!ff!!ped! z [E,G,B,E]!ped-up!!ped! z2 [C,A,C]2 | %28
 [G,,,G,,]2 [B,,,B,,]2 [B,,F,B,]2 | [E,B,]2!ped! !^!G,2 !^!=A,2!ped-up! | %30
!ped! !^!F,2 !^!G,2!ped-up!!ped! _A,F,!ped-up! |!ped! G,2!ped-up!!ped! !^!B,2 !^!C2!ped-up! | %32
!ped! !^!A,2 !^!B,2 [A,C]2!ped-up! | [B,,F,B,]2!ped! [A,,F,A,]4!ped-up! | %34
 [G,,E,G,]2 [_G,,E,_G,]2 [F,,B,,F,]2 | [E,,C,E,]2 [D,,D,]2 [F,,B,,F,]2 | %36
 [E,,C,E,]2 [D,,D,]2 [F,,B,,F,]2 | [E,,_C,E,]2{D,,} [D,F,]2 [=C,E,]2 | %38
!ped! !///-!B,,,3 B,,3!ped-up! |!ff!!ped! z [E,G,B,E]!ped-up!!ped! z2 [C,A,C]2!ped-up! | %40
 [G,,E,G,]2 [B,,B,]2 [B,,,B,,]2 | !fermata![E,,B,,E,]6- | [E,,B,,E,]2 z2 !fermata!z2 |] %43
V:4
 x2 [C,,A,,C,]4 | x2 x2[I:staff -1] A,[I:staff +1]F, | x2{C,,} C,4 | B,,4 B,,2 | E,2{E,,} E,4 | %5
 D,4 C,2- | C,4 C,2- | [F,,C,]4 B,,2 | x2 [C,,A,,C,]4 | x4 B,,2 | x2{C,,} C,4 | B,,4 B,,2 | %12
 E,2{E,,} E,4 | D,4 x2 | x6 | x6 | x6 | x6 | x2 B,,,2 A,2 | (G,2 x4) | x4 A,2 | G,B,, x4 | x6 | %23
 (B,,4 A,,G,,) | x6 | x6 | x6 | [E,,B,,E,]2 [C,,A,,C,]4 | x6 | x2{C,,} C,4 | B,,4 B,,2 | %31
 E,2{E,,} E,4 | D,4 C,2 | x6 | x6 | x6 | x6 | x6 | x6 | [E,,B,,E,]2 [C,,A,,C,]4 | x6 | x6 | x6 |] %43

